;FLAVOR:Marlin
;TIME:2855
;Filament used: 3.60908m
;Layer height: 0.32
;MINX:28.78
;MINY:19.691
;MINZ:0.32
;MAXX:191.22
;MAXY:122.685
;MAXZ:1.92
;Generated with Cura_SteamEngine 4.4.1
M140 S60
M105
M190 S60
M104 S200
M105
M109 S200
M82 ;absolute extrusion mode
G21        ;metric values
G90        ;absolute positioning
M82        ;set extruder to absolute mode
M107       ;start with the fan off
G28 X0 Y0  ;move X/Y to min endstops
G28 Z0     ;move Z to min endstops
G0 X0 Y15 F9000 ; Go to front
G0 Z0.15 ; Drop to bed
G92 E0 ; zero the extruded length
G1 X40 E25 F500 ; Extrude 25mm of filament in a 4cm line
G92 E0 ; zero the extruded length
G1 E-1 F500 ; Retract a little
G1 X80 F4000 ; Quickly wipe away from the filament line
G92 E0
G92 E0
G1 F1200 E-2.4
;LAYER_COUNT:6
;LAYER:0
M107
;MESH:Surgical_Mask_Strap_Remix.stl(2)
G0 F1440 X85.086 Y36.512 Z0.32
;TYPE:WALL-OUTER
G1 F1200 E0
G1 F900 X84.793 Y36.55 E0.02162
G1 X69.298 Y38.585 E1.16516
G1 X69.026 Y38.62 E1.18523
G1 X69.062 Y38.892 E1.1982
G1 X69.286 Y40.588 E1.32337
G1 X70.272 Y40.588 E1.39552
G1 X70.961 Y40.772 E1.4477
G1 X71.521 Y41.095 E1.49501
G1 X72.078 Y41.632 E1.55162
G1 X72.432 Y42.245 E1.60342
G1 X72.617 Y42.933 E1.65555
G1 X72.617 Y43.583 E1.70311
G1 X72.448 Y44.271 E1.75495
G1 X72.075 Y44.947 E1.81145
G1 X71.617 Y45.405 E1.85884
G1 X70.959 Y45.802 E1.91507
G1 X70.33 Y45.97 E1.96271
G1 X69.56 Y45.985 E2.01906
G1 X68.934 Y45.819 E2.06645
G1 X68.308 Y45.474 E2.11875
G1 X67.8 Y44.987 E2.17025
G1 X67.43 Y44.377 E2.22245
G1 X67.214 Y43.627 E2.27956
G1 X66.596 Y38.94 E2.62549
G1 X57.4 Y40.147 E3.30415
G1 X57.128 Y40.182 E3.32422
G1 X57.163 Y40.454 E3.3372
G1 X57.388 Y42.154 E3.46268
G1 X58.313 Y42.154 E3.53036
G1 X59.066 Y42.34 E3.58712
G1 X59.626 Y42.663 E3.63442
G1 X60.138 Y43.154 E3.68633
G1 X60.534 Y43.811 E3.74246
G1 X60.703 Y44.44 E3.79012
G1 X60.718 Y45.151 E3.84216
G1 X60.533 Y45.899 E3.89854
G1 X60.181 Y46.51 E3.95013
G1 X59.677 Y47.013 E4.00224
G1 X59.062 Y47.368 E4.0542
G1 X58.433 Y47.537 E4.10185
G1 X57.722 Y47.552 E4.15389
G1 X56.975 Y47.367 E4.2102
G1 X56.362 Y47.013 E4.262
G1 X55.903 Y46.555 E4.30945
G1 X55.504 Y45.892 E4.36607
G1 X55.316 Y45.191 E4.41917
G1 X54.698 Y40.502 E4.76525
G1 X45.502 Y41.709 E5.44391
G1 X45.23 Y41.744 E5.46398
G1 X45.265 Y42.016 E5.47696
G1 X45.49 Y43.72 E5.60273
G1 X46.476 Y43.72 E5.67487
G1 X47.164 Y43.905 E5.727
G1 X47.779 Y44.26 E5.77896
G1 X48.24 Y44.721 E5.82667
G1 X48.608 Y45.328 E5.87861
G1 X48.821 Y46.066 E5.93481
G1 X48.821 Y46.715 E5.9823
G1 X48.653 Y47.404 E6.0342
G1 X48.278 Y48.082 E6.09089
G1 X47.78 Y48.58 E6.14242
G1 X47.217 Y48.904 E6.18995
G1 X46.475 Y49.119 E6.24648
G1 X45.767 Y49.119 E6.29829
G1 X45.078 Y48.934 E6.35049
G1 X44.519 Y48.612 E6.39769
G1 X43.961 Y48.075 E6.45436
G1 X43.636 Y47.513 E6.50186
G1 X43.418 Y46.759 E6.5593
G1 X42.8 Y42.064 E6.9058
G1 X33.603 Y43.271 E7.58454
G1 X33.331 Y43.306 E7.60461
G1 X33.367 Y43.578 E7.61757
G1 X33.593 Y45.287 E7.74371
G1 X34.52 Y45.287 E7.81155
G1 X35.209 Y45.455 E7.86344
G1 X35.832 Y45.798 E7.91548
G1 X36.342 Y46.288 E7.96723
G1 X36.71 Y46.895 E8.01917
G1 X36.908 Y47.575 E8.07099
G1 X36.923 Y48.344 E8.12727
G1 X36.756 Y48.969 E8.17461
G1 X36.382 Y49.646 E8.2312
G1 X35.923 Y50.104 E8.27865
G1 X35.316 Y50.472 E8.33059
G1 X34.636 Y50.669 E8.38239
G1 X33.927 Y50.684 E8.43428
G1 X33.18 Y50.5 E8.49058
G1 X32.62 Y50.177 E8.53788
G1 X32.063 Y49.641 E8.59444
G1 X31.738 Y49.079 E8.64195
G1 X31.537 Y48.384 E8.69489
G1 X28.78 Y27.508 E10.2357
G1 X28.78 Y26.842 E10.28443
G1 X28.949 Y26.154 E10.33627
G1 X29.323 Y25.476 E10.39293
G1 X29.778 Y25.021 E10.44001
G1 X30.437 Y24.623 E10.49634
G1 X31.066 Y24.455 E10.54398
G1 X31.837 Y24.44 E10.60041
G1 X32.523 Y24.623 E10.65236
G1 X33.083 Y24.946 E10.69966
G1 X33.642 Y25.484 E10.75643
G1 X33.964 Y26.042 E10.80357
G1 X34.163 Y26.727 E10.85577
G1 X34.178 Y27.435 E10.90759
G1 X33.993 Y28.184 E10.96404
G1 X33.64 Y28.796 E11.01574
G1 X33.138 Y29.298 E11.06768
G1 X32.575 Y29.622 E11.11522
G1 X31.568 Y29.914 E11.19193
G1 X31.747 Y31.275 E11.29238
G1 X31.782 Y31.547 E11.31245
G1 X32.054 Y31.512 E11.32543
G1 X40.98 Y30.339 E11.98418
G1 X41.252 Y30.304 E12.00425
G1 X41.217 Y30.032 E12.01723
G1 X40.678 Y25.942 E12.31909
G1 X40.678 Y25.277 E12.36775
G1 X40.863 Y24.527 E12.42427
G1 X41.219 Y23.911 E12.47633
G1 X41.676 Y23.454 E12.52363
G1 X42.335 Y23.057 E12.57992
G1 X42.964 Y22.888 E12.62758
G1 X43.675 Y22.873 E12.67961
G1 X44.423 Y23.058 E12.736
G1 X44.983 Y23.381 E12.7833
G1 X45.495 Y23.873 E12.83526
G1 X45.892 Y24.529 E12.89137
G1 X46.06 Y25.158 E12.939
G1 X46.075 Y25.869 E12.99104
G1 X45.891 Y26.616 E13.04733
G1 X45.535 Y27.232 E13.09939
G1 X45.078 Y27.689 E13.14669
G1 X44.419 Y28.086 E13.20298
G1 X43.465 Y28.345 E13.27531
G1 X43.681 Y29.985 E13.39635
G1 X52.878 Y28.777 E14.0751
G1 X53.15 Y28.742 E14.09516
G1 X53.115 Y28.47 E14.10815
G1 X52.575 Y24.376 E14.41031
G1 X52.575 Y23.712 E14.45889
G1 X52.761 Y22.961 E14.51551
G1 X53.085 Y22.401 E14.56285
G1 X53.62 Y21.843 E14.61941
G1 X54.179 Y21.521 E14.66662
G1 X54.864 Y21.322 E14.71881
G1 X55.632 Y21.307 E14.77502
G1 X56.258 Y21.474 E14.82243
G1 X56.937 Y21.849 E14.87918
G1 X57.392 Y22.304 E14.92627
G1 X57.76 Y22.913 E14.97833
G1 X57.974 Y23.652 E15.03463
G1 X57.974 Y24.3 E15.08205
G1 X57.805 Y24.989 E15.13396
G1 X57.433 Y25.665 E15.19042
G1 X56.974 Y26.123 E15.23786
G1 X56.317 Y26.521 E15.29407
G1 X55.362 Y26.778 E15.36644
G1 X55.579 Y28.423 E15.48785
G1 X64.776 Y27.215 E16.16659
G1 X65.048 Y27.18 E16.18666
G1 X65.013 Y26.908 E16.19964
G1 X64.473 Y22.809 E16.50217
G1 X64.473 Y22.084 E16.55522
G1 X64.641 Y21.455 E16.60285
G1 X65.016 Y20.777 E16.65955
G1 X65.469 Y20.324 E16.70642
G1 X66.082 Y19.952 E16.75889
G1 X66.819 Y19.74 E16.81501
G1 X67.468 Y19.74 E16.8625
G1 X68.157 Y19.908 E16.91439
G1 X68.78 Y20.251 E16.96643
G1 X69.335 Y20.785 E17.02278
G1 X69.687 Y21.395 E17.07432
G1 X69.856 Y22.026 E17.12212
G1 X69.871 Y22.796 E17.17847
G1 X69.704 Y23.422 E17.22588
G1 X69.329 Y24.101 E17.28263
G1 X68.874 Y24.556 E17.32972
G1 X68.265 Y24.925 E17.38182
G1 X67.26 Y25.214 E17.45834
G1 X67.477 Y26.861 E17.5799
G1 X87.489 Y24.234 E19.05678
G1 X88.806 Y21.054 E19.30864
G1 X89.238 Y20.49 E19.36062
G1 X89.802 Y20.058 E19.41261
G1 X90.354 Y19.83 E19.45631
G1 X90.567 Y19.772 E19.47246
G1 X91.185 Y19.691 E19.51807
G1 X128.815 Y19.691 E22.27154
G1 X129.452 Y19.774 E22.31855
G1 X129.539 Y19.785 E22.32496
G1 X130.099 Y20.017 E22.36932
G1 X130.283 Y20.123 E22.38485
G1 X130.762 Y20.49 E22.42901
G1 X131.193 Y21.053 E22.48089
G1 X132.511 Y24.234 E22.73284
G1 X152.523 Y26.861 E24.20973
G1 X152.741 Y25.21 E24.33158
G1 X151.784 Y24.954 E24.40407
G1 X151.224 Y24.631 E24.45138
G1 X150.665 Y24.093 E24.50815
G1 X150.343 Y23.534 E24.55535
G1 X150.128 Y22.792 E24.61188
G1 X150.128 Y22.084 E24.66368
G1 X150.296 Y21.455 E24.71132
G1 X150.671 Y20.777 E24.76801
G1 X151.126 Y20.322 E24.8151
G1 X151.736 Y19.953 E24.86726
G1 X152.474 Y19.74 E24.92347
G1 X153.122 Y19.74 E24.97089
G1 X153.872 Y19.925 E25.02741
G1 X154.488 Y20.281 E25.07947
G1 X154.945 Y20.738 E25.12676
G1 X155.313 Y21.346 E25.17876
G1 X155.511 Y22.028 E25.23073
G1 X155.527 Y22.813 E25.28818
G1 X154.987 Y26.908 E25.59042
G1 X154.952 Y27.18 E25.61048
G1 X155.224 Y27.215 E25.62346
G1 X164.421 Y28.423 E26.30221
G1 X164.639 Y26.777 E26.4237
G1 X163.743 Y26.537 E26.49158
G1 X163.065 Y26.162 E26.54827
G1 X162.607 Y25.705 E26.59561
G1 X162.24 Y25.098 E26.64752
G1 X162.042 Y24.416 E26.69948
G1 X162.027 Y23.648 E26.75569
G1 X162.194 Y23.022 E26.80309
G1 X162.569 Y22.343 E26.85985
G1 X163.024 Y21.888 E26.90694
G1 X163.632 Y21.52 E26.95894
G1 X164.314 Y21.322 E27.0109
G1 X165.083 Y21.307 E27.06718
G1 X165.709 Y21.474 E27.11459
G1 X166.385 Y21.848 E27.17112
G1 X166.885 Y22.348 E27.22286
G1 X167.211 Y22.912 E27.27053
G1 X167.425 Y23.652 E27.3269
G1 X167.425 Y24.317 E27.37555
G1 X167.34 Y25.018 E27.42722
G1 X166.885 Y28.47 E27.682
G1 X166.85 Y28.742 E27.70207
G1 X167.122 Y28.777 E27.71505
G1 X176.319 Y29.985 E28.39379
G1 X176.536 Y28.343 E28.51499
G1 X175.579 Y28.086 E28.58749
G1 X174.965 Y27.732 E28.63935
G1 X174.506 Y27.273 E28.68685
G1 X174.108 Y26.614 E28.74318
G1 X173.94 Y25.985 E28.79082
G1 X173.925 Y25.214 E28.84725
G1 X174.108 Y24.528 E28.8992
G1 X174.432 Y23.967 E28.94661
G1 X174.969 Y23.409 E29.00327
G1 X175.579 Y23.057 E29.05481
G1 X176.268 Y22.872 E29.10701
G1 X176.917 Y22.872 E29.1545
G1 X177.669 Y23.058 E29.21118
G1 X178.226 Y23.379 E29.25822
G1 X178.784 Y23.916 E29.31489
G1 X179.109 Y24.478 E29.36239
G1 X179.322 Y25.218 E29.41874
G1 X179.322 Y25.883 E29.4674
G1 X179.238 Y26.584 E29.51906
G1 X178.783 Y30.032 E29.77354
G1 X178.748 Y30.304 E29.79361
G1 X179.02 Y30.339 E29.80659
G1 X188.218 Y31.548 E30.48542
G1 X188.435 Y29.909 E30.60639
G1 X187.535 Y29.668 E30.67457
G1 X186.914 Y29.327 E30.72641
G1 X186.358 Y28.792 E30.78287
G1 X186.036 Y28.233 E30.83007
G1 X185.821 Y27.491 E30.8866
G1 X185.821 Y26.783 E30.93841
G1 X185.99 Y26.152 E30.98621
G1 X186.331 Y25.532 E31.03798
G1 X186.866 Y24.976 E31.09444
G1 X187.426 Y24.653 E31.14174
G1 X188.108 Y24.455 E31.19371
G1 X188.878 Y24.44 E31.25006
G1 X189.504 Y24.606 E31.29745
G1 X190.128 Y24.95 E31.34959
G1 X190.683 Y25.484 E31.40595
G1 X191.005 Y26.042 E31.45309
G1 X191.22 Y26.785 E31.50968
G1 X191.22 Y27.443 E31.55783
G1 X191.002 Y29.161 E31.68455
G1 X188.479 Y48.325 E33.09892
G1 X188.291 Y49.029 E33.15224
G1 X187.965 Y49.593 E33.19991
G1 X187.474 Y50.104 E33.25176
G1 X186.818 Y50.501 E33.30787
G1 X186.189 Y50.669 E33.35551
G1 X185.477 Y50.684 E33.40762
G1 X184.791 Y50.517 E33.45928
G1 X184.116 Y50.144 E33.51571
G1 X183.659 Y49.686 E33.56305
G1 X183.29 Y49.077 E33.61516
G1 X183.076 Y48.339 E33.67138
G1 X183.076 Y47.69 E33.71887
G1 X183.245 Y47.002 E33.77071
G1 X183.618 Y46.326 E33.82721
G1 X184.076 Y45.868 E33.8746
G1 X184.734 Y45.471 E33.93083
G1 X185.363 Y45.303 E33.97847
G1 X186.109 Y45.287 E34.03307
G1 X186.408 Y45.287 E34.05495
G1 X186.634 Y43.578 E34.18109
G1 X186.67 Y43.306 E34.20117
G1 X186.398 Y43.271 E34.21413
G1 X177.2 Y42.064 E34.89294
G1 X176.582 Y46.758 E35.23937
G1 X176.41 Y47.403 E35.28822
G1 X176.065 Y48.029 E35.34052
G1 X175.576 Y48.538 E35.39217
G1 X174.971 Y48.905 E35.44394
G1 X174.289 Y49.103 E35.49591
G1 X173.521 Y49.118 E35.55212
G1 X172.834 Y48.934 E35.60416
G1 X172.275 Y48.612 E35.65136
G1 X171.717 Y48.075 E35.70803
G1 X171.392 Y47.513 E35.75553
G1 X171.195 Y46.833 E35.80733
G1 X171.18 Y46.062 E35.86376
G1 X171.346 Y45.436 E35.91115
G1 X171.72 Y44.76 E35.96768
G1 X172.178 Y44.303 E36.01502
G1 X172.788 Y43.933 E36.06723
G1 X173.525 Y43.72 E36.12336
G1 X174.511 Y43.72 E36.19551
G1 X174.736 Y42.016 E36.32128
G1 X174.772 Y41.744 E36.34135
G1 X174.5 Y41.709 E36.35432
G1 X165.302 Y40.502 E37.03313
G1 X164.684 Y45.191 E37.3792
G1 X164.495 Y45.897 E37.43268
G1 X164.173 Y46.457 E37.47994
G1 X163.679 Y46.971 E37.53211
G1 X163.071 Y47.34 E37.58415
G1 X162.334 Y47.553 E37.64029
G1 X161.687 Y47.553 E37.68763
G1 X160.936 Y47.367 E37.74424
G1 X160.375 Y47.043 E37.79164
G1 X159.863 Y46.552 E37.84355
G1 X159.465 Y45.892 E37.89995
G1 X159.281 Y45.208 E37.95178
G1 X159.281 Y44.558 E37.99934
G1 X159.45 Y43.87 E38.05118
G1 X159.824 Y43.191 E38.1079
G1 X160.322 Y42.693 E38.15943
G1 X160.884 Y42.369 E38.2069
G1 X161.569 Y42.17 E38.2591
G1 X162.614 Y42.149 E38.33558
G1 X162.838 Y40.454 E38.46068
G1 X162.873 Y40.182 E38.48075
G1 X162.601 Y40.147 E38.49373
G1 X153.404 Y38.94 E39.17247
G1 X152.786 Y43.626 E39.51832
G1 X152.598 Y44.329 E39.57157
G1 X152.241 Y44.947 E39.62379
G1 X151.743 Y45.445 E39.67533
G1 X151.176 Y45.773 E39.72326
G1 X150.436 Y45.986 E39.7796
G1 X149.728 Y45.986 E39.83141
G1 X149.099 Y45.819 E39.87903
G1 X148.423 Y45.445 E39.93556
G1 X147.965 Y44.986 E39.983
G1 X147.567 Y44.329 E40.03921
G1 X147.383 Y43.642 E40.09125
G1 X147.383 Y42.933 E40.14313
G1 X147.568 Y42.245 E40.19526
G1 X147.893 Y41.683 E40.24277
G1 X148.429 Y41.124 E40.29943
G1 X148.988 Y40.802 E40.34664
G1 X149.729 Y40.588 E40.40308
G1 X150.715 Y40.588 E40.47522
G1 X150.939 Y38.892 E40.6004
G1 X150.975 Y38.62 E40.62048
G1 X150.703 Y38.585 E40.63344
G1 X135.208 Y36.55 E41.77698
G1 X134.924 Y36.513 E41.79794
G1 X134.9 Y36.798 E41.81131
G1 X134.899 Y36.799 E41.81141
G1 X134.856 Y37.289 E41.84741
G1 X134.717 Y37.678 E41.87763
G1 X134.503 Y37.96 E41.90354
G1 X134.192 Y38.182 E41.9315
G1 X133.774 Y38.339 E41.96417
G1 X133.305 Y38.419 E41.99898
G1 X87.155 Y38.443 E45.37588
G1 X86.546 Y38.403 E45.42054
G1 X86.046 Y38.285 E45.45813
G1 X85.674 Y38.104 E45.4884
G1 X85.404 Y37.86 E45.51503
G1 X85.221 Y37.549 E45.54144
G1 X85.12 Y37.142 E45.57212
G1 X85.101 Y36.808 E45.5966
G1 X85.1 Y36.807 E45.5967
G1 X85.086 Y36.512 E45.61037
G0 F1440 X84.888 Y36.537
G1 F1200 E43.21037
G0 F1440 X128.624 Y33.962
G1 F1200 E45.61037
G1 F900 X128.825 Y33.491 E45.64784
G1 X128.832 Y33.005 E45.6834
G1 X128.306 Y31.499 E45.80013
G1 X125.94 Y24.873 E46.31495
G1 X125.807 Y24.553 E46.34031
G1 X125.482 Y24.196 E46.37563
G1 X125.046 Y23.985 E46.41108
G1 X124.682 Y23.949 E46.43784
G1 X95.715 Y23.949 E48.55742
G1 X95.293 Y23.981 E48.58839
G1 X94.852 Y24.192 E48.62416
G1 X94.524 Y24.555 E48.65996
G1 X93.949 Y26.11 E48.78127
G1 X91.586 Y32.726 E49.29533
G1 X91.499 Y33.008 E49.31693
G1 X91.484 Y33.388 E49.34475
G1 X91.619 Y33.829 E49.3785
G1 X91.923 Y34.211 E49.41422
G1 X92.351 Y34.452 E49.45017
G1 X92.8 Y34.51 E49.48329
G1 X127.456 Y34.497 E52.01915
G1 X127.822 Y34.486 E52.04595
G1 X128.271 Y34.304 E52.0814
G1 X128.624 Y33.962 E52.11736
G0 F1440 X128.702 Y33.779
G0 X129.078 Y34.274
;TYPE:SKIN
G1 F900 X129.363 Y33.605 E52.17057
G1 X129.374 Y32.917 E52.22092
G1 X128.815 Y31.319 E52.3448
G1 X126.444 Y24.679 E52.86071
G1 X126.27 Y24.259 E52.89397
G1 X125.811 Y23.756 E52.9438
G1 X125.195 Y23.457 E52.9939
G1 X124.709 Y23.409 E53.02964
G1 X95.695 Y23.409 E55.15266
G1 X95.152 Y23.451 E55.19251
G1 X94.523 Y23.75 E55.24347
G1 X94.053 Y24.27 E55.29476
G1 X93.442 Y25.926 E55.42392
G1 X91.073 Y32.555 E55.93902
G1 X90.963 Y32.916 E55.96663
G1 X90.94 Y33.458 E56.00633
G1 X91.132 Y34.085 E56.05431
G1 X91.566 Y34.629 E56.10523
G1 X92.178 Y34.974 E56.15664
G1 X92.765 Y35.05 E56.19995
G1 X127.464 Y35.037 E58.73895
G1 X127.935 Y35.022 E58.77344
G1 X128.571 Y34.765 E58.82363
G1 X129.078 Y34.274 E58.87527
G1 F1200 E56.47527
G0 F1440 X134.435 Y35.904
G1 F1200 E58.87527
G1 F900 X134.324 Y37.171 E58.96834
G1 X134.236 Y37.419 E58.98759
G1 X134.121 Y37.569 E59.00142
G1 X133.936 Y37.702 E59.01809
G1 X133.633 Y37.815 E59.04176
G1 X133.26 Y37.879 E59.06945
G1 X87.16 Y37.903 E62.44269
G1 X86.634 Y37.869 E62.48126
G1 X86.224 Y37.771 E62.51211
G1 X85.982 Y37.654 E62.53178
G1 X85.827 Y37.513 E62.54711
G1 X85.727 Y37.343 E62.56154
G1 X85.658 Y37.066 E62.58243
G1 X85.594 Y35.901 E62.6678
G1 X68.42 Y38.155 E63.93524
G1 X68.813 Y41.128 E64.15467
G1 X70.201 Y41.128 E64.25624
G1 X70.754 Y41.276 E64.29813
G1 X71.192 Y41.528 E64.3351
G1 X71.648 Y41.968 E64.38147
G1 X71.928 Y42.454 E64.42251
G1 X72.077 Y43.007 E64.46442
G1 X72.077 Y43.52 E64.50195
G1 X71.942 Y44.07 E64.54339
G1 X71.636 Y44.624 E64.5897
G1 X71.285 Y44.975 E64.62603
G1 X70.748 Y45.299 E64.67192
G1 X70.252 Y45.432 E64.70949
G1 X69.624 Y45.443 E64.75545
G1 X69.138 Y45.314 E64.79225
G1 X68.629 Y45.034 E64.83475
G1 X68.226 Y44.648 E64.87559
G1 X67.928 Y44.157 E64.91761
G1 X67.744 Y43.515 E64.96648
G1 X67.061 Y38.335 E65.34879
G1 X56.522 Y39.717 E66.12656
G1 X56.915 Y42.694 E66.34628
G1 X58.248 Y42.694 E66.44382
G1 X58.863 Y42.846 E66.49018
G1 X59.302 Y43.099 E66.52725
G1 X59.709 Y43.489 E66.5685
G1 X60.032 Y44.025 E66.61429
G1 X60.165 Y44.518 E66.65165
G1 X60.176 Y45.092 E66.69366
G1 X60.028 Y45.695 E66.73909
G1 X59.75 Y46.177 E66.77981
G1 X59.343 Y46.583 E66.82187
G1 X58.857 Y46.864 E66.86295
G1 X58.355 Y46.999 E66.90099
G1 X57.782 Y47.01 E66.94293
G1 X57.18 Y46.861 E66.9883
G1 X56.694 Y46.581 E67.02935
G1 X56.332 Y46.22 E67.06675
G1 X56.006 Y45.678 E67.11304
G1 X55.848 Y45.086 E67.15787
G1 X55.163 Y39.897 E67.54085
G1 X44.624 Y41.279 E68.31862
G1 X45.017 Y44.26 E68.53863
G1 X46.403 Y44.26 E68.64005
G1 X46.957 Y44.409 E68.68203
G1 X47.451 Y44.694 E68.72376
G1 X47.808 Y45.051 E68.7607
G1 X48.11 Y45.548 E68.80326
G1 X48.281 Y46.141 E68.84842
