;FLAVOR:Marlin
;TIME:1066
;Filament used: 0.951657m
;Layer height: 0.2
;MINX:96
;MINY:96
;MINZ:0.32
;MAXX:124
;MAXY:124
;MAXZ:19.92

;POSTPROCESSED
;ChangeAtZ instances: 1
;Generated with Cura_SteamEngine 4.2.1
M140 S60
M105
M190 S60
M104 S200
M105
M109 S200
M82 ;absolute extrusion mode
G21        ;metric values
G90        ;absolute positioning
M82        ;set extruder to absolute mode
M107       ;start with the fan off
G28 X0 Y0  ;move X/Y to min endstops
G28 Z0     ;move Z to min endstops
G0 X0 Y15 F9000 ; Go to front
G0 Z0.15 ; Drop to bed
G92 E0 ; zero the extruded length
G1 X40 E25 F500 ; Extrude 25mm of filament in a 4cm line
G92 E0 ; zero the extruded length
G1 E-1 F500 ; Retract a little
G1 X80 F4000 ; Quickly wipe away from the filament line
G92 E0
G92 E0
G1 F1200 E-1.2
;LAYER_COUNT:99

;LAYER:0
M107
G0 F600 X97.004 Y97.369 Z0.32
;TYPE:SKIRT
G1 F1200 E0
G1 F480 X97.406 Y96.972 E0.03007
G1 X97.86 Y96.635 E0.06016
G1 X98.357 Y96.366 E0.09023
G1 X98.887 Y96.169 E0.12032
G1 X99.44 Y96.05 E0.15042
G1 X99.897 Y96.011 E0.17483
G1 X100.218 Y96.002 E0.19192
G1 X100.33 Y96 E0.19788
G1 X119.35 Y96 E1.21005
G1 X120.048 Y96.01 E1.2472
G1 X120.612 Y96.058 E1.27732
G1 X121.162 Y96.185 E1.30736
G1 X121.69 Y96.389 E1.33749
G1 X122.184 Y96.664 E1.36757
G1 X122.633 Y97.007 E1.39764
G1 X123.03 Y97.409 E1.42771
G1 X123.367 Y97.864 E1.45784
G1 X123.635 Y98.361 E1.48789
G1 X123.831 Y98.891 E1.51796
G1 X123.951 Y99.444 E1.54807
G1 X123.989 Y99.898 E1.57232
G1 X123.998 Y100.218 E1.58935
G1 X124 Y100.33 E1.59531
G1 X124 Y119.314 E2.60557
G1 X123.991 Y120.041 E2.64426
G1 X123.944 Y120.604 E2.67433
G1 X123.818 Y121.155 E2.70441
G1 X123.616 Y121.683 E2.73449
G1 X123.341 Y122.177 E2.76458
G1 X122.999 Y122.627 E2.79466
G1 X122.597 Y123.025 E2.82476
G1 X122.144 Y123.362 E2.85481
G1 X121.647 Y123.632 E2.88491
G1 X121.117 Y123.829 E2.915
G1 X120.565 Y123.95 E2.94507
G1 X120.103 Y123.989 E2.96974
G1 X119.782 Y123.998 E2.98683
G1 X119.67 Y124 E2.99279
G1 X100.655 Y124 E4.0047
G1 X99.957 Y123.991 E4.04185
G1 X99.394 Y123.943 E4.07192
G1 X98.843 Y123.817 E4.102
G1 X98.315 Y123.615 E4.13208
G1 X97.821 Y123.34 E4.16217
G1 X97.371 Y122.998 E4.19225
G1 X96.973 Y122.596 E4.22235
G1 X96.637 Y122.142 E4.25241
G1 X96.367 Y121.645 E4.28251
G1 X96.17 Y121.115 E4.3126
G1 X96.05 Y120.563 E4.34266
G1 X96.01 Y120.099 E4.36744
G1 X96.001 Y119.766 E4.38517
G1 X96 Y119.658 E4.39092
G1 X96 Y100.62 E5.40405
G1 X96.009 Y99.955 E5.43944
G1 X96.057 Y99.392 E5.46951
G1 X96.183 Y98.841 E5.49959
G1 X96.386 Y98.313 E5.52969
G1 X96.662 Y97.819 E5.5598
G1 X97.004 Y97.369 E5.58988
G0 F600 X97.397 Y97.531
G1 F480 X97.794 Y97.171 E5.6184
G1 X98.241 Y96.873 E5.64699
G1 X98.726 Y96.645 E5.67551
G1 X99.24 Y96.492 E5.70405
G1 X99.908 Y96.41 E5.73987
G1 X100.229 Y96.401 E5.75695
G1 X100.33 Y96.4 E5.76233
G1 X119.345 Y96.4 E6.77424
G1 X120.043 Y96.41 E6.81139
G1 X120.577 Y96.458 E6.83992
G1 X121.098 Y96.584 E6.86844
G1 X121.595 Y96.787 E6.89701
G1 X122.056 Y97.061 E6.92555
G1 X122.471 Y97.4 E6.95407
G1 X122.831 Y97.798 E6.98263
G1 X123.128 Y98.244 E7.01114
G1 X123.356 Y98.73 E7.03971
G1 X123.508 Y99.244 E7.06823
G1 X123.59 Y99.909 E7.10389
G1 X123.599 Y100.229 E7.12093
G1 X123.6 Y100.33 E7.1263
G1 X123.6 Y119.309 E8.13629
G1 X123.591 Y120.036 E8.17498
G1 X123.544 Y120.57 E8.20351
G1 X123.419 Y121.091 E8.23202
G1 X123.217 Y121.588 E8.26057
G1 X122.944 Y122.05 E8.28913
G1 X122.606 Y122.466 E8.31765
G1 X122.209 Y122.827 E8.34621
G1 X121.763 Y123.125 E8.37475
G1 X121.278 Y123.353 E8.40327
G1 X120.764 Y123.507 E8.43183
G1 X120.092 Y123.59 E8.46786
G1 X119.771 Y123.599 E8.48495
G1 X119.67 Y123.6 E8.49033
G1 X100.661 Y123.6 E9.50191
G1 X99.963 Y123.591 E9.53906
G1 X99.428 Y123.544 E9.56764
G1 X98.907 Y123.418 E9.59617
G1 X98.41 Y123.216 E9.62472
G1 X97.949 Y122.943 E9.65323
G1 X97.533 Y122.604 E9.68178
G1 X97.172 Y122.208 E9.7103
G1 X96.874 Y121.762 E9.73885
G1 X96.646 Y121.276 E9.76741
G1 X96.493 Y120.762 E9.79595
G1 X96.41 Y120.088 E9.83209
G1 X96.401 Y119.755 E9.84982
G1 X96.4 Y119.658 E9.85498
G1 X96.4 Y100.625 E10.86784
G1 X96.409 Y99.96 E10.90324
G1 X96.457 Y99.426 E10.93177
G1 X96.583 Y98.905 E10.96029
G1 X96.785 Y98.408 E10.98884
G1 X97.058 Y97.947 E11.01736
G1 X97.397 Y97.531 E11.04591
G0 F600 X97.454 Y98.082
G1 F480 X97.789 Y97.704 E11.07279
G1 X98.18 Y97.383 E11.09971
G1 X98.617 Y97.128 E11.12664
G1 X99.088 Y96.944 E11.15355
G1 X99.582 Y96.838 E11.18043
G1 X99.919 Y96.81 E11.19843
G1 X100.24 Y96.801 E11.21552
G1 X100.33 Y96.8 E11.22031
G1 X119.339 Y96.8 E12.2319
G1 X120.037 Y96.81 E12.26905
G1 X120.54 Y96.857 E12.29593
G1 X121.03 Y96.983 E12.32285
G1 X121.494 Y97.185 E12.34978
G1 X121.92 Y97.457 E12.37668
G1 X122.298 Y97.792 E12.40356
G1 X122.618 Y98.183 E12.43045
G1 X122.873 Y98.62 E12.45737
G1 X123.056 Y99.091 E12.48426
G1 X123.163 Y99.585 E12.51116
G1 X123.19 Y99.92 E12.52905
G1 X123.199 Y100.24 E12.54608
G1 X123.2 Y100.33 E12.55087
G1 X123.2 Y119.304 E13.5606
G1 X123.191 Y120.031 E13.59929
G1 X123.145 Y120.534 E13.62617
G1 X123.02 Y121.024 E13.65308
G1 X122.819 Y121.488 E13.67999
G1 X122.548 Y121.915 E13.7069
G1 X122.213 Y122.294 E13.73382
G1 X121.823 Y122.615 E13.7607
G1 X121.387 Y122.871 E13.78761
G1 X120.916 Y123.054 E13.8145
G1 X120.422 Y123.162 E13.84141
G1 X120.081 Y123.19 E13.85961
G1 X119.76 Y123.199 E13.8767
G1 X119.67 Y123.2 E13.88149
G1 X100.666 Y123.2 E14.89281
G1 X99.968 Y123.191 E14.92996
G1 X99.464 Y123.144 E14.9569
G1 X98.974 Y123.019 E14.98381
G1 X98.51 Y122.818 E15.01072
G1 X98.084 Y122.547 E15.03759
G1 X97.705 Y122.212 E15.06451
G1 X97.384 Y121.821 E15.09143
G1 X97.129 Y121.385 E15.11831
G1 X96.945 Y120.914 E15.14522
G1 X96.838 Y120.42 E15.17212
G1 X96.81 Y120.077 E15.19043
G1 X96.801 Y119.744 E15.20816
G1 X96.8 Y119.658 E15.21273
G1 X96.8 Y100.631 E16.22528
G1 X96.809 Y99.966 E16.26067
G1 X96.856 Y99.462 E16.28761
G1 X96.982 Y98.973 E16.31448
G1 X97.183 Y98.509 E16.34139
G1 X97.454 Y98.082 E16.3683
G1 F1200 E15.1683
;MESH:xyzCalibration_cube.stl
G0 F600 X99.335 Y100.614
G0 X100.614 Y100.614
G0 X100.67 Y119.33
G0 X100.6 Y119.4
;TYPE:WALL-INNER
G1 F1200 E16.3683
G1 F480 X100.6 Y100.6 E17.36877
G1 X119.4 Y100.6 E18.36923
G1 X119.4 Y119.4 E19.3697
G1 X100.6 Y119.4 E20.37016
G0 F600 X100.2 Y119.8
;TYPE:WALL-OUTER
G1 F480 X100.2 Y100.2 E21.4132
G1 X119.8 Y100.2 E22.45624
G1 X119.8 Y119.8 E23.49928
G1 X100.2 Y119.8 E24.54231
G0 F600 X100.2 Y119.6
G0 X100.99 Y119.01
;TYPE:SKIN
G1 F480 X100.99 Y100.99 E25.50127
G1 X119.01 Y100.99 E26.46023
G1 X119.01 Y119.01 E27.41918
G1 X100.99 Y119.01 E28.37814
G0 F600 X101.293 Y118.829
G1 F480 X101.169 Y118.705 E28.38747
G0 F600 X101.169 Y118.139
G1 F480 X101.858 Y118.829 E28.43936
G0 F600 X102.424 Y118.829
G1 F480 X101.169 Y117.574 E28.53381
G0 F600 X101.169 Y117.008
G1 F480 X102.99 Y118.829 E28.67086
G0 F600 X103.555 Y118.829
G1 F480 X101.169 Y116.442 E28.85047
G0 F600 X101.169 Y115.877
G1 F480 X104.121 Y118.829 E29.07263
G0 F600 X104.687 Y118.829
G1 F480 X101.169 Y115.311 E29.33739
G0 F600 X101.169 Y114.745
G1 F480 X105.252 Y118.829 E29.64471
G0 F600 X105.818 Y118.829
G1 F480 X101.169 Y114.18 E29.99459
G0 F600 X101.169 Y113.614
G1 F480 X106.384 Y118.829 E30.38707
G0 F600 X106.949 Y118.829
G1 F480 X101.169 Y113.048 E30.8221
G0 F600 X101.169 Y112.483
G1 F480 X107.515 Y118.829 E31.2997
G0 F600 X108.081 Y118.829
G1 F480 X101.169 Y111.917 E31.81989
G0 F600 X101.169 Y111.351
G1 F480 X108.646 Y118.829 E32.38264
G0 F600 X109.212 Y118.829
G1 F480 X101.169 Y110.785 E32.98799
G0 F600 X101.169 Y110.22
G1 F480 X109.778 Y118.829 E33.63589
G0 F600 X110.344 Y118.829
G1 F480 X101.169 Y109.654 E34.32639
G0 F600 X101.169 Y109.088
G1 F480 X110.909 Y118.829 E35.05945
G0 F600 X111.475 Y118.829
G1 F480 X101.169 Y108.523 E35.83507
G0 F600 X101.169 Y107.957
G1 F480 X112.041 Y118.829 E36.65329
G0 F600 X112.606 Y118.829
G1 F480 X101.169 Y107.391 E37.51407
G0 F600 X101.169 Y106.826
G1 F480 X113.172 Y118.829 E38.4174
G0 F600 X113.738 Y118.829
G1 F480 X101.169 Y106.26 E39.36333
G0 F600 X101.169 Y105.694
G1 F480 X114.303 Y118.829 E40.35182
G0 F600 X114.869 Y118.829
G1 F480 X101.169 Y105.129 E41.38287
G0 F600 X101.169 Y104.563
G1 F480 X115.435 Y118.829 E42.45652
G0 F600 X116 Y118.829
G1 F480 X101.169 Y103.997 E43.57273
G0 F600 X101.169 Y103.432
G1 F480 X116.566 Y118.829 E44.73149
G0 F600 X117.132 Y118.829
G1 F480 X101.169 Y102.866 E45.93285
G0 F600 X101.169 Y102.3
G1 F480 X117.697 Y118.829 E47.17677
G0 F600 X118.263 Y118.829
G1 F480 X101.169 Y101.734 E48.46329
G0 F600 X101.169 Y101.169
G1 F480 X118.829 Y118.829 E49.79236
G0 F600 X118.829 Y118.263
G1 F480 X101.735 Y101.17 E51.0788
G0 F600 X102.301 Y101.17
G1 F480 X118.829 Y117.697 E52.32265
G0 F600 X118.829 Y117.132
G1 F480 X102.867 Y101.17 E53.52393
G0 F600 X103.432 Y101.17
G1 F480 X118.829 Y116.566 E54.68266
G0 F600 X118.829 Y116
G1 F480 X103.998 Y101.17 E55.79879
G0 F600 X104.564 Y101.17
G1 F480 X118.829 Y115.435 E56.87236
G0 F600 X118.829 Y114.869
G1 F480 X105.129 Y101.17 E57.90337
G0 F600 X105.695 Y101.17
G1 F480 X118.829 Y114.303 E58.89179
G0 F600 X118.829 Y113.738
G1 F480 X106.261 Y101.17 E59.83765
G0 F600 X106.826 Y101.17
G1 F480 X118.829 Y113.172 E60.74094
G0 F600 X118.829 Y112.606
G1 F480 X107.392 Y101.17 E61.60164
G0 F600 X107.958 Y101.17
G1 F480 X118.829 Y112.041 E62.41979
G0 F600 X118.829 Y111.475
G1 F480 X108.523 Y101.17 E63.19537
G0 F600 X109.089 Y101.17
G1 F480 X118.829 Y110.909 E63.92835
G0 F600 X118.829 Y110.344
G1 F480 X109.655 Y101.17 E64.61878
G0 F600 X110.22 Y101.17
G1 F480 X118.829 Y109.778 E65.26665
G0 F600 X118.829 Y109.212
G1 F480 X110.786 Y101.17 E65.87192
G0 F600 X111.352 Y101.17
G1 F480 X118.829 Y108.646 E66.43459
G0 F600 X118.829 Y108.081
G1 F480 X111.918 Y101.17 E66.95471
G0 F600 X112.483 Y101.17
G1 F480 X118.829 Y107.515 E67.43227
G0 F600 X118.829 Y106.949
G1 F480 X113.049 Y101.17 E67.86723
G0 F600 X113.615 Y101.17
G1 F480 X118.829 Y106.384 E68.25963
G0 F600 X118.829 Y105.818
G1 F480 X114.18 Y101.17 E68.60947
G0 F600 X114.746 Y101.17
G1 F480 X118.829 Y105.252 E68.91671
G0 F600 X118.829 Y104.687
G1 F480 X115.312 Y101.17 E69.1814
G0 F600 X115.877 Y101.17
G1 F480 X118.829 Y104.121 E69.40353
G0 F600 X118.829 Y103.555
G1 F480 X116.443 Y101.17 E69.58306
G0 F600 X117.009 Y101.17
G1 F480 X118.829 Y102.99 E69.72003
G0 F600 X118.829 Y102.424
G1 F480 X117.574 Y101.17 E69.81444
G0 F600 X118.14 Y101.17
G1 F480 X118.829 Y101.858 E69.86626
G0 F600 X118.829 Y101.293
G1 F480 X118.706 Y101.17 E69.87552
;MESH:NONMESH
G0 F600 X118.706 Y101.17 Z0.52
G0 X100.67 Y119.33
G0 X100.6 Y119.4
;TIME_ELAPSED:187.935034

;LAYER:1
M140 S50
M106 S34
;TYPE:WALL-INNER
;MESH:xyzCalibration_cube.stl
G1 F1860 X100.6 Y100.6 E70.50081
G1 X119.4 Y100.6 E71.1261
G1 X119.4 Y119.4 E71.75139
G1 X100.6 Y119.4 E72.37668
G0 F2700 X100.2 Y119.8
;TYPE:WALL-OUTER
G1 F1050 X100.2 Y100.2 E73.02858
G1 X119.8 Y100.2 E73.68047
G1 X119.8 Y119.8 E74.33237
G1 X100.2 Y119.8 E74.98427
G0 F2700 X100.2 Y119.6
G0 X100.99 Y119.01
;TYPE:SKIN
G1 F840 X100.99 Y100.99 E75.58362
G1 X119.01 Y100.99 E76.18297
G1 X119.01 Y119.01 E76.78232
G1 X100.99 Y119.01 E77.38166
G0 F2700 X101.17 Y101.345
G1 F840 X101.346 Y101.169 E77.38994
G0 F2700 X101.911 Y101.169
G1 F840 X101.17 Y101.911 E77.42482
G0 F2700 X101.17 Y102.476
G1 F840 X102.477 Y101.169 E77.4863
G0 F2700 X103.043 Y101.169
G1 F840 X101.17 Y103.042 E77.5744
G0 F2700 X101.17 Y103.608
G1 F840 X103.608 Y101.169 E77.6891
G0 F2700 X104.174 Y101.169
G1 F840 X101.17 Y104.173 E77.8304
G0 F2700 X101.17 Y104.739
G1 F840 X104.74 Y101.169 E77.99832
G0 F2700 X105.305 Y101.169
G1 F840 X101.17 Y105.305 E78.19284
G0 F2700 X101.17 Y105.87
G1 F840 X105.871 Y101.169 E78.41396
G0 F2700 X106.437 Y101.169
G1 F840 X101.17 Y106.436 E78.6617
G0 F2700 X101.17 Y107.002
G1 F840 X107.002 Y101.169 E78.93605
G0 F2700 X107.568 Y101.169
G1 F840 X101.17 Y107.567 E79.23699
G0 F2700 X101.17 Y108.133
G1 F840 X108.134 Y101.169 E79.56455
G0 F2700 X108.699 Y101.169
G1 F840 X101.17 Y108.699 E79.91872
G0 F2700 X101.17 Y109.264
G1 F840 X109.265 Y101.169 E80.29948
G0 F2700 X109.831 Y101.169
G1 F840 X101.17 Y109.83 E80.70687
G0 F2700 X101.17 Y110.396
G1 F840 X110.397 Y101.169 E81.14088
G0 F2700 X110.962 Y101.169
G1 F840 X101.17 Y110.962 E81.60149
G0 F2700 X101.17 Y111.527
G1 F840 X111.528 Y101.169 E82.0887
G0 F2700 X112.094 Y101.169
G1 F840 X101.17 Y112.093 E82.60253
G0 F2700 X101.17 Y112.659
G1 F840 X112.659 Y101.169 E83.14296
G0 F2700 X113.225 Y101.169
G1 F840 X101.17 Y113.224 E83.70999
G0 F2700 X101.17 Y113.79
G1 F840 X113.791 Y101.169 E84.30364
G0 F2700 X114.356 Y101.169
G1 F840 X101.17 Y114.356 E84.92389
G0 F2700 X101.17 Y114.921
G1 F840 X114.922 Y101.169 E85.57075
G0 F2700 X115.488 Y101.169
G1 F840 X101.17 Y115.487 E86.24422
G0 F2700 X101.17 Y116.053
G1 F840 X116.053 Y101.169 E86.94429
G0 F2700 X116.619 Y101.169
G1 F840 X101.17 Y116.618 E87.67097
G0 F2700 X101.17 Y117.184
G1 F840 X117.185 Y101.169 E88.42427
G0 F2700 X117.75 Y101.169
G1 F840 X101.17 Y117.75 E89.20416
G0 F2700 X101.17 Y118.315
G1 F840 X118.316 Y101.169 E90.01066
G0 F2700 X118.829 Y101.222
G1 F840 X101.222 Y118.829 E90.83884
G0 F2700 X101.788 Y118.829
G1 F840 X118.829 Y101.788 E91.64039
G0 F2700 X118.829 Y102.353
G1 F840 X102.353 Y118.829 E92.41537
G0 F2700 X102.919 Y118.829
G1 F840 X118.829 Y102.919 E93.16373
G0 F2700 X118.829 Y103.485
G1 F840 X103.485 Y118.829 E93.88546
G0 F2700 X104.05 Y118.829
G1 F840 X118.829 Y104.05 E94.58062
G0 F2700 X118.829 Y104.616
G1 F840 X104.616 Y118.829 E95.24916
G0 F2700 X105.182 Y118.829
G1 F840 X118.829 Y105.182 E95.89107
G0 F2700 X118.829 Y105.747
G1 F840 X105.747 Y118.829 E96.50641
G0 F2700 X106.313 Y118.829
G1 F840 X118.829 Y106.313 E97.09512
G0 F2700 X118.829 Y106.879
G1 F840 X106.879 Y118.829 E97.65722
G0 F2700 X107.444 Y118.829
G1 F840 X118.829 Y107.444 E98.19273
G0 F2700 X118.829 Y108.01
G1 F840 X108.01 Y118.829 E98.70162
G0 F2700 X108.576 Y118.829
G1 F840 X118.829 Y108.576 E99.18389
G0 F2700 X118.829 Y109.141
G1 F840 X109.141 Y118.829 E99.63959
G0 F2700 X109.707 Y118.829
G1 F840 X118.829 Y109.707 E100.06866
G0 F2700 X118.829 Y110.273
G1 F840 X110.273 Y118.829 E100.47111
G0 F2700 X110.838 Y118.829
G1 F840 X118.829 Y110.838 E100.84698
G0 F2700 X118.829 Y111.404
G1 F840 X111.404 Y118.829 E101.19623
G0 F2700 X111.97 Y118.829
G1 F840 X118.829 Y111.97 E101.51885
G0 F2700 X118.829 Y112.536
G1 F840 X112.536 Y118.829 E101.81486
G0 F2700 X113.101 Y118.829
G1 F840 X118.829 Y113.101 E102.08428
G0 F2700 X118.829 Y113.667
G1 F840 X113.667 Y118.829 E102.32709
G0 F2700 X114.233 Y118.829
G1 F840 X118.829 Y114.233 E102.54327
G0 F2700 X118.829 Y114.798
G1 F840 X114.798 Y118.829 E102.73288
G0 F2700 X115.364 Y118.829
G1 F840 X118.829 Y115.364 E102.89586
G0 F2700 X118.829 Y115.93
G1 F840 X115.93 Y118.829 E103.03222
G0 F2700 X116.495 Y118.829
G1 F840 X118.829 Y116.495 E103.142
G0 F2700 X118.829 Y117.061
G1 F840 X117.061 Y118.829 E103.22517
G0 F2700 X117.627 Y118.829
G1 F840 X118.829 Y117.627 E103.2817
G0 F2700 X118.829 Y118.192
G1 F840 X118.192 Y118.829 E103.31167
G0 F2700 X118.758 Y118.829
G1 F840 X118.829 Y118.758 E103.31501
;MESH:NONMESH
G0 F600 X118.829 Y118.758 Z0.72
G0 F2700 X100.759 Y100.759
;TIME_ELAPSED:258.030451

;LAYER:2
M106 S110.5
;TYPE:FILL
;MESH:xyzCalibration_cube.stl
G1 F4020 X119.239 Y119.239 E104.18425
G1 X119.309 Y119.309
G0 F4800 X119.3 Y119.309
G0 X119.239 Y107.523
G1 F4020 X100.759 Y112.474 E104.82057
G1 X100.663 Y112.499
G0 F4800 X100.7 Y112.499
G0 X100.759 Y117.73
G1 F4020 X102.268 Y119.239 E104.89155
G1 X102.338 Y119.309
G0 F4800 X102.338 Y119.3
G0 X107.523 Y119.24
G1 F4020 X112.475 Y100.758 E105.52795
G1 X112.5 Y100.662
G0 F4800 X112.5 Y100.7
G0 X117.73 Y100.759
G1 F4020 X119.239 Y102.268 E105.59893
G1 X119.309 Y102.338
G0 F4800 X119.3 Y102.338
G0 X100.67 Y119.33
G0 X100.6 Y119.4
;TYPE:WALL-INNER
G1 F3240 X100.6 Y100.6 E106.22422
G1 X119.4 Y100.6 E106.84951
G1 X119.4 Y119.4 E107.4748
G1 X100.6 Y119.4 E108.10009
G0 F4800 X100.2 Y119.8
;TYPE:WALL-OUTER
G1 F1620 X100.2 Y100.2 E108.75199
G1 X119.8 Y100.2 E109.40389
G1 X119.8 Y119.8 E110.05578
G1 X100.2 Y119.8 E110.70768
G0 F4800 X100.2 Y119.6
G0 X100.882 Y119
;MESH:NONMESH
G0 F600 X100.882 Y119 Z0.92
G0 F4800 X100.759 Y100.759
;TIME_ELAPSED:264.540440

